icons/svg/health/sanatorium.svg

<?xml version="1.0" encoding="UTF-8" standalone="no"?>
<!-- Created with Inkscape (http://www.inkscape.org/) -->

<svg
   xmlns:dc="http://purl.org/dc/elements/1.1/"
   xmlns:cc="http://creativecommons.org/ns#"
   xmlns:rdf="http://www.w3.org/1999/02/22-rdf-syntax-ns#"
   xmlns:svg="http://www.w3.org/2000/svg"
   xmlns="http://www.w3.org/2000/svg"
   xmlns:sodipodi="http://sodipodi.sourceforge.net/DTD/sodipodi-0.dtd"
   xmlns:inkscape="http://www.inkscape.org/namespaces/inkscape"
   version="1.0"
   width="580"
   height="580"
   id="svg2"
   sodipodi:version="0.32"
   inkscape:version="0.91 r"
   sodipodi:docname="sanatorium.svg"
   inkscape:output_extension="org.inkscape.output.svg.inkscape">
  <metadata
     id="metadata2975">
    <rdf:RDF>
      <cc:Work
         rdf:about="">
        <dc:format>image/svg+xml</dc:format>
        <dc:type
           rdf:resource="http://purl.org/dc/dcmitype/StillImage" />
        <cc:license
           rdf:resource="http://web.resource.org/cc/PublicDomain" />
        <dc:language>en</dc:language>
      </cc:Work>
    </rdf:RDF>
  </metadata>
  <sodipodi:namedview
     inkscape:window-height="739"
     inkscape:window-width="1332"
     inkscape:pageshadow="2"
     inkscape:pageopacity="0.0"
     guidetolerance="10.0"
     gridtolerance="10.0"
     objecttolerance="10.0"
     borderopacity="1.0"
     bordercolor="#666666"
     pagecolor="#ffffff"
     id="base"
     inkscape:zoom="0.46083856"
     inkscape:cx="280.51344"
     inkscape:cy="199.42674"
     inkscape:window-x="34"
     inkscape:window-y="1024"
     inkscape:current-layer="svg2"
     showgrid="false"
     inkscape:window-maximized="1" />
  <defs
     id="defs4">
    <inkscape:perspective
       sodipodi:type="inkscape:persp3d"
       inkscape:vp_x="0 : 290 : 1"
       inkscape:vp_y="0 : 1000 : 0"
       inkscape:vp_z="580 : 290 : 1"
       inkscape:persp3d-origin="290 : 193.33333 : 1"
       id="perspective2441" />
    <inkscape:perspective
       id="perspective3452"
       inkscape:persp3d-origin="30 : 20 : 1"
       inkscape:vp_z="60 : 30 : 1"
       inkscape:vp_y="0 : 1000 : 0"
       inkscape:vp_x="0 : 30 : 1"
       sodipodi:type="inkscape:persp3d" />
    <symbol
       viewBox="244.5 110 489 219.9"
       id="symbol-university">
      <path
         id="path4460"
         d="M79,43l57,119c0,0,21-96,104-96s124,106,124,106l43-133l82-17L0,17L79,43z" />
      <path
         id="path4462"
         d="M94,176l-21,39"
         stroke-width="20"
         stroke="#000000"
         fill="none" />
      <path
         id="path4464"
         d="M300,19c0,10.5-22.6,19-50.5,19S199,29.5,199,19s22.6-19,50.5-19S300,8.5,300,19z" />
      <path
         id="path4466"
         d="M112,216l-16-38L64,88c0,0-9-8-4-35s16-24,16-24"
         stroke-width="20"
         stroke="#000000"
         ill="none" />
    </symbol>
    <inkscape:perspective
       id="perspective4471"
       inkscape:persp3d-origin="372.04724 : 350.78739 : 1"
       inkscape:vp_z="744.09448 : 526.18109 : 1"
       inkscape:vp_y="0 : 1000 : 0"
       inkscape:vp_x="0 : 526.18109 : 1"
       sodipodi:type="inkscape:persp3d" />
    <inkscape:perspective
       id="perspective4668"
       inkscape:persp3d-origin="6 : 4 : 1"
       inkscape:vp_z="12 : 6 : 1"
       inkscape:vp_y="0 : 1000 : 0"
       inkscape:vp_x="0 : 6 : 1"
       sodipodi:type="inkscape:persp3d" />
    <inkscape:perspective
       id="perspective4904"
       inkscape:persp3d-origin="16 : 10.666667 : 1"
       inkscape:vp_z="32 : 16 : 1"
       inkscape:vp_y="0 : 1000 : 0"
       inkscape:vp_x="0 : 16 : 1"
       sodipodi:type="inkscape:persp3d" />
    <marker
       style="overflow:visible;"
       id="Arrow2Lend"
       refX="0.0"
       refY="0.0"
       orient="auto"
       inkscape:stockid="Arrow2Lend">
      <path
         transform="scale(1.1) rotate(180) translate(1,0)"
         d="M 8.7185878,4.0337352 L -2.2072895,0.016013256 L 8.7185884,-4.0017078 C 6.9730900,-1.6296469 6.9831476,1.6157441 8.7185878,4.0337352 z "
         style="font-size:12.0;fill-rule:evenodd;stroke-width:0.62500000;stroke-linejoin:round;"
         id="path4137" />
    </marker>
    <marker
       style="overflow:visible;"
       id="Arrow1Mend"
       refX="0.0"
       refY="0.0"
       orient="auto"
       inkscape:stockid="Arrow1Mend">
      <path
         transform="scale(0.4) rotate(180) translate(10,0)"
         style="fill-rule:evenodd;stroke:#000000;stroke-width:1.0pt;marker-start:none;"
         d="M 0.0,0.0 L 5.0,-5.0 L -12.5,0.0 L 5.0,5.0 L 0.0,0.0 z "
         id="path4125" />
    </marker>
    <marker
       style="overflow:visible"
       id="TriangleOutL"
       refX="0.0"
       refY="0.0"
       orient="auto"
       inkscape:stockid="TriangleOutL">
      <path
         transform="scale(0.8)"
         style="fill-rule:evenodd;stroke:#000000;stroke-width:1.0pt;marker-start:none"
         d="M 5.77,0.0 L -2.88,5.0 L -2.88,-5.0 L 5.77,0.0 z "
         id="path4214" />
    </marker>
    <marker
       style="overflow:visible;"
       id="Arrow1Lend"
       refX="0.0"
       refY="0.0"
       orient="auto"
       inkscape:stockid="Arrow1Lend">
      <path
         transform="scale(0.8) rotate(180) translate(12.5,0)"
         style="fill-rule:evenodd;stroke:#000000;stroke-width:1.0pt;marker-start:none;"
         d="M 0.0,0.0 L 5.0,-5.0 L -12.5,0.0 L 5.0,5.0 L 0.0,0.0 z "
         id="path4119" />
    </marker>
    <marker
       style="overflow:visible"
       id="Tail"
       refX="0.0"
       refY="0.0"
       orient="auto"
       inkscape:stockid="Tail">
      <g
         transform="scale(-1.2)"
         id="g4152">
        <path
           style="fill:none;fill-rule:evenodd;stroke:#000000;stroke-width:0.8;marker-start:none;marker-end:none;stroke-linecap:round"
           d="M -3.8048674,-3.9585227 L 0.54352094,0"
           id="path4154" />
        <path
           style="fill:none;fill-rule:evenodd;stroke:#000000;stroke-width:0.8;marker-start:none;marker-end:none;stroke-linecap:round"
           d="M -1.2866832,-3.9585227 L 3.0617053,0"
           id="path4156" />
        <path
           style="fill:none;fill-rule:evenodd;stroke:#000000;stroke-width:0.8;marker-start:none;marker-end:none;stroke-linecap:round"
           d="M 1.3053582,-3.9585227 L 5.6537466,0"
           id="path4158" />
        <path
           style="fill:none;fill-rule:evenodd;stroke:#000000;stroke-width:0.8;marker-start:none;marker-end:none;stroke-linecap:round"
           d="M -3.8048674,4.1775838 L 0.54352094,0.21974226"
           id="path4160" />
        <path
           style="fill:none;fill-rule:evenodd;stroke:#000000;stroke-width:0.8;marker-start:none;marker-end:none;stroke-linecap:round"
           d="M -1.2866832,4.1775838 L 3.0617053,0.21974226"
           id="path4162" />
        <path
           style="fill:none;fill-rule:evenodd;stroke:#000000;stroke-width:0.8;marker-start:none;marker-end:none;stroke-linecap:round"
           d="M 1.3053582,4.1775838 L 5.6537466,0.21974226"
           id="path4164" />
      </g>
    </marker>
    <marker
       style="overflow:visible"
       id="Arrow1Sstart"
       refX="0.0"
       refY="0.0"
       orient="auto"
       inkscape:stockid="Arrow1Sstart">
      <path
         transform="scale(0.2) translate(6,0)"
         style="fill-rule:evenodd;stroke:#000000;stroke-width:1.0pt;marker-start:none"
         d="M 0.0,0.0 L 5.0,-5.0 L -12.5,0.0 L 5.0,5.0 L 0.0,0.0 z "
         id="path4128" />
    </marker>
    <marker
       style="overflow:visible;"
       id="Arrow1Send"
       refX="0.0"
       refY="0.0"
       orient="auto"
       inkscape:stockid="Arrow1Send">
      <path
         transform="scale(0.2) rotate(180) translate(6,0)"
         style="fill-rule:evenodd;stroke:#000000;stroke-width:1.0pt;marker-start:none;"
         d="M 0.0,0.0 L 5.0,-5.0 L -12.5,0.0 L 5.0,5.0 L 0.0,0.0 z "
         id="path4131" />
    </marker>
    <marker
       style="overflow:visible"
       id="SemiCircleOut"
       refX="0.0"
       refY="0.0"
       orient="auto"
       inkscape:stockid="SemiCircleOut">
      <path
         transform="scale(0.6) translate(7.125493,0.763446)"
         style="fill-rule:evenodd;stroke:#000000;stroke-width:1.0pt;marker-start:none;marker-end:none"
         d="M -2.5,-0.80913858 C -2.5,1.9508614 -4.7400000,4.1908614 -7.5,4.1908614 L -7.5,-5.8091386 C -4.7400000,-5.8091386 -2.5,-3.5691386 -2.5,-0.80913858 z "
         id="path4235" />
    </marker>
    <marker
       style="overflow:visible;"
       id="Arrow2Send"
       refX="0.0"
       refY="0.0"
       orient="auto"
       inkscape:stockid="Arrow2Send">
      <path
         transform="scale(0.3) rotate(180) translate(-2.3,0)"
         d="M 8.7185878,4.0337352 L -2.2072895,0.016013256 L 8.7185884,-4.0017078 C 6.9730900,-1.6296469 6.9831476,1.6157441 8.7185878,4.0337352 z "
         style="font-size:12.0;fill-rule:evenodd;stroke-width:0.62500000;stroke-linejoin:round;"
         id="path4149" />
    </marker>
    <marker
       style="overflow:visible"
       id="TriangleOutS"
       refX="0.0"
       refY="0.0"
       orient="auto"
       inkscape:stockid="TriangleOutS">
      <path
         transform="scale(0.2)"
         style="fill-rule:evenodd;stroke:#000000;stroke-width:1.0pt;marker-start:none"
         d="M 5.77,0.0 L -2.88,5.0 L -2.88,-5.0 L 5.77,0.0 z "
         id="path4220" />
    </marker>
    <marker
       style="overflow:visible"
       id="CurveIn"
       refX="0.0"
       refY="0.0"
       orient="auto"
       inkscape:stockid="CurveIn">
      <path
         transform="scale(0.6)"
         style="fill-rule:evenodd;stroke:#000000;stroke-width:1.0pt;marker-start:none;marker-end:none;fill:none"
         d="M 4.6254930,-5.0456926 C 1.8654930,-5.0456926 -0.37450702,-2.8056926 -0.37450702,-0.045692580 C -0.37450702,2.7143074 1.8654930,4.9543074 4.6254930,4.9543074"
         id="path4238" />
    </marker>
    <marker
       orient="auto"
       refY="0"
       refX="0"
       id="InfiniteLineStart"
       inkscape:stockid="InfiniteLineStart"
       style="overflow:visible">
      <g
         transform="translate(-13,0)"
         id="g4298">
        <circle
           cx="3"
           cy="0"
           r="0.8"
           id="circle4300" />
        <circle
           cx="6.5"
           cy="0"
           r="0.8"
           id="circle4302" />
        <circle
           cx="10"
           cy="0"
           r="0.8"
           id="circle4304" />
      </g>
    </marker>
    <marker
       style="overflow:visible"
       id="StopS"
       refX="0.0"
       refY="0.0"
       orient="auto"
       inkscape:stockid="StopS">
      <path
         transform="scale(0.2)"
         style="fill:none;fill-opacity:0.75000000;fill-rule:evenodd;stroke:#000000;stroke-width:1.0pt"
         d="M 0.0,5.65 L 0.0,-5.65"
         id="path4229" />
    </marker>
    <marker
       style="overflow:visible"
       id="Arrow2Sstart"
       refX="0.0"
       refY="0.0"
       orient="auto"
       inkscape:stockid="Arrow2Sstart">
      <path
         transform="scale(0.3) translate(-2.3,0)"
         d="M 8.7185878,4.0337352 L -2.2072895,0.016013256 L 8.7185884,-4.0017078 C 6.9730900,-1.6296469 6.9831476,1.6157441 8.7185878,4.0337352 z "
         style="font-size:12.0;fill-rule:evenodd;stroke-width:0.62500000;stroke-linejoin:round"
         id="path4146" />
    </marker>
    <marker
       style="overflow:visible"
       id="DiamondS"
       refX="0.0"
       refY="0.0"
       orient="auto"
       inkscape:stockid="DiamondS">
      <path
         transform="scale(0.2)"
         style="fill-rule:evenodd;stroke:#000000;stroke-width:1.0pt;marker-start:none"
         d="M 0,-7.0710768 L -7.0710894,0 L 0,7.0710589 L 7.0710462,0 L 0,-7.0710768 z "
         id="path4202" />
    </marker>
    <marker
       orient="auto"
       refY="0"
       refX="0"
       id="RazorWire"
       inkscape:stockid="RazorWire">
       style=&quot;overflow:visible&quot;&gt;
      <path
   d="M 0.022727273,-0.74009011 L 0.022727273,0.69740989 L -7.7585227,3.0099099 L 10.678977,3.0099099 L 3.4914773,0.69740989 L 3.4914773,-0.74009011 L 10.741477,-2.8963401 L -7.7272727,-2.8963401 L 0.022727273,-0.74009011 z "
   style="fill:#808080;fill-opacity:1;fill-rule:evenodd;stroke:#000000;stroke-width:0.1pt"
   transform="scale(0.8,0.8)"
   id="path4286" />
</marker>
    <inkscape:perspective
       id="perspective5233"
       inkscape:persp3d-origin="16 : 10.666667 : 1"
       inkscape:vp_z="32 : 16 : 1"
       inkscape:vp_y="0 : 1000 : 0"
       inkscape:vp_x="0 : 16 : 1"
       sodipodi:type="inkscape:persp3d" />
    <inkscape:perspective
       id="perspective5412"
       inkscape:persp3d-origin="250 : 166.66667 : 1"
       inkscape:vp_z="500 : 250 : 1"
       inkscape:vp_y="0 : 1000 : 0"
       inkscape:vp_x="0 : 250 : 1"
       sodipodi:type="inkscape:persp3d" />
    <inkscape:perspective
       id="perspective5571"
       inkscape:persp3d-origin="202.85715 : 136.19048 : 1"
       inkscape:vp_z="405.71429 : 204.28572 : 1"
       inkscape:vp_y="0 : 1000 : 0"
       inkscape:vp_x="0 : 204.28572 : 1"
       sodipodi:type="inkscape:persp3d" />
  </defs>
  <g
     id="g1327">
    <path
       d="M 66.275,1.768 C 24.94,1.768 1.704,23.139 1.704,66.804 L 1.704,516.927 C 1.704,557.771 22.599,579.156 63.896,579.156 L 515.92,579.156 C 557.227,579.156 578.149,558.841 578.149,516.927 L 578.149,66.804 C 578.149,24.203 557.227,1.768 514.628,1.768 C 514.624,1.768 66.133,1.625 66.275,1.768 z "
       style="fill:#111;stroke:#eee;stroke-width:3.40799999"
       id="path1329" />
  </g>
  <path
     style="fill:#ffffff"
     d="m 290,111.09961 -37.23828,64.49805 -37.23828,64.49804 -86.40821,0 -21.65039,-37.5 -21.65234,-37.5 -21.650391,37.5 -21.648437,37.5 0,265.98828 494.974608,0 0,-265.98828 -0.002,0 -21.64844,-37.5 -21.65039,-37.5 -21.65234,37.5 -21.64844,37.5 -86.41016,0 -37.24023,-64.49804 z m 2.6e-4,146.82018 c 61.8505,0 112.17005,50.31955 112.17005,112.17005 0,61.8505 -50.31955,112.17006 -112.17005,112.17005 -61.85177,0 -112.17252,-50.31828 -112.17252,-112.17005 0,-61.85177 50.32075,-112.17005 112.17252,-112.17005 z"
     id="polygon12"
     inkscape:connector-curvature="0"
     sodipodi:nodetypes="cccccccccccccccccccsssss" />
  <path
     style="fill:#ffffff"
     inkscape:connector-curvature="0"
     d="m 290.00026,272.50551 c -53.80812,0 -97.58326,43.77641 -97.58326,97.58326 0,53.80685 43.77514,97.582 97.58326,97.582 53.80685,0 97.58327,-43.77515 97.58327,-97.582 0,-53.80685 -43.77642,-97.58326 -97.58327,-97.58326 z m 85.02745,118.55875 -64.05196,0 0,64.05196 -41.9497,0 0,-64.05196 -64.05069,0 0,-41.94843 64.05069,0 0,-64.05069 41.9497,0 0,64.05069 64.05196,0 z"
     id="path20"
     sodipodi:nodetypes="sssssccccccccccccc" />
</svg>

<svg width="580" height="580" viewBox="0 0 580 580" fill="none" xmlns="http://www.w3.org/2000/svg">
<g clip-path="url(#clip0)">
<path d="M66.2751 1.76802C24.9401 1.76802 1.7041 23.139 1.7041 66.804V516.927C1.7041 557.771 22.5991 579.156 63.8961 579.156H515.92C557.227 579.156 578.149 558.841 578.149 516.927V66.804C578.149 24.203 557.227 1.76802 514.628 1.76802C514.624 1.76802 66.1331 1.62502 66.2751 1.76802Z" fill="#111111" stroke="#EEEEEE" stroke-width="3.408"/>
<path d="M290 111.1L252.762 175.598L215.523 240.096H129.115L107.465 202.596L85.8125 165.096L64.1621 202.596L42.5137 240.096V506.084H537.488V240.096H537.486L515.838 202.596L494.187 165.096L472.535 202.596L450.887 240.096H364.477L327.236 175.598L290 111.1ZM290 257.92C351.851 257.92 402.17 308.239 402.17 370.09C402.17 431.94 351.851 482.26 290 482.26C228.149 482.26 177.828 431.942 177.828 370.09C177.828 308.238 228.149 257.92 290 257.92Z" fill="white"/>
<path d="M290 272.505C236.192 272.505 192.417 316.282 192.417 370.089C192.417 423.896 236.192 467.671 290 467.671C343.807 467.671 387.584 423.896 387.584 370.089C387.584 316.282 343.807 272.505 290 272.505ZM375.028 391.064H310.976V455.116H269.026V391.064H204.975V349.116H269.026V285.065H310.976V349.116H375.028V391.064Z" fill="white"/>
</g>
<defs>
<clipPath id="clip0">
<path d="M0 0H580V580H0V0Z" fill="white"/>
</clipPath>
</defs>
</svg>
